packages/foundations/assets/icons/functional/images/layout/list_20.svg

<svg width="20" height="20" viewBox="0 0 20 20" fill="none" xmlns="http://www.w3.org/2000/svg">
<g clip-path="url(#clip0_185_1364)">
<path fill-rule="evenodd" clip-rule="evenodd" d="M9.01402 16H16.0187C16.5421 16 17 15.541 17 14.9836C17 14.459 16.5421 14 16.0187 14H9.01402C8.45793 14 8 14.459 8 14.9836C8 15.541 8.45793 16 9.01402 16ZM4.02199 16H5.01099C5.53848 16 6 15.541 6 14.9836C6 14.459 5.53848 14 5.01099 14H4.02199C3.46152 14 3 14.459 3 14.9836C3 15.541 3.46152 16 4.02199 16ZM9.01402 11H16.0187C16.5421 11 17 10.5484 17 10C17 9.45159 16.5421 9 16.0187 9H9.01402C8.45793 9 8 9.45159 8 10C8 10.5484 8.45793 11 9.01402 11ZM4.02199 11H5.01099C5.53848 11 6 10.5484 6 10C6 9.45159 5.53848 9 5.01099 9H4.02199C3.46152 9 3 9.45159 3 10C3 10.5484 3.46152 11 4.02199 11ZM9.01402 6H16.0187C16.5421 6 17 5.541 17 4.9836C17 4.459 16.5421 4 16.0187 4H9.01402C8.45793 4 8 4.459 8 4.9836C8 5.541 8.45793 6 9.01402 6ZM4.02199 6H5.01099C5.53848 6 6 5.541 6 4.9836C6 4.459 5.53848 4 5.01099 4H4.02199C3.46152 4 3 4.459 3 4.9836C3 5.541 3.46152 6 4.02199 6Z" fill="#1A1C1F"/>
</g>
<defs>
<clipPath id="clip0_185_1364">
<rect width="20" height="20" fill="white"/>
</clipPath>
</defs>
</svg>

<svg xmlns="http://www.w3.org/2000/svg" width="20" height="20" fill="none"><g clip-path="url(#a)"><path fill="#1A1C1F" fill-rule="evenodd" d="M9.014 16h7.005c.523 0 .981-.459.981-1.016 0-.525-.458-.984-.981-.984H9.014C8.458 14 8 14.459 8 14.984A1.02 1.02 0 0 0 9.014 16m-4.992 0h.989c.527 0 .989-.459.989-1.016 0-.525-.462-.984-.989-.984h-.989c-.56 0-1.022.459-1.022.984C3 15.54 3.462 16 4.022 16m4.992-5h7.005c.523 0 .981-.452.981-1s-.458-1-.981-1H9.014C8.458 9 8 9.452 8 10s.458 1 1.014 1m-4.992 0h.989c.527 0 .989-.452.989-1s-.462-1-.989-1h-.989C3.462 9 3 9.452 3 10s.462 1 1.022 1m4.992-5h7.005c.523 0 .981-.459.981-1.016 0-.525-.458-.984-.981-.984H9.014C8.458 4 8 4.459 8 4.984A1.02 1.02 0 0 0 9.014 6M4.022 6h.989C5.538 6 6 5.541 6 4.984 6 4.459 5.538 4 5.011 4h-.989C3.462 4 3 4.459 3 4.984 3 5.54 3.462 6 4.022 6" clip-rule="evenodd"/></g><defs><clipPath id="a"><path fill="#fff" d="M0 0h20v20H0z"/></clipPath></defs></svg>
